X: 1
T: Return From Helsinki   [G]
C: Ian Stepenson
R: march
Z: 2022 John Chambers <jc:trillian.mit.edu> chords + a few tweaks.
S: Arrived in my .../demo/Tunes collection 2021-7-22
M: 4/4
L: 1/8
K: G
|: "G"d4 B2AG | "D"F3G A3D | "C"EFGB "Am"A2GF | "D"E2D2 "D7"DBc^c |
|  "G"d{e}dcB "D"A2d2 | "Em"B3c cBAG | "Am"E2{F}GB "D7"A2{BA}GF |1 "G"G4- G2"D7"D2 :|2 "G"G4 GABd ||
|: "C"e2ed e2cd | "Am"efg2 efga | "D"abaf "C"g2fe | "D7"dBA2 "G7"GABd |
|  "C"e2ed e2cd | "Am"efg2 efga | "D"abaf "C"g2fe |1 "D7"dBA2 "G7"G2Bd :|2 "D7"dBA2- A4 |]
